build/images/slider/face-ul-2.svg

<svg width="157" height="235" viewBox="0 0 157 235" fill="none" xmlns="http://www.w3.org/2000/svg" xmlns:xlink="http://www.w3.org/1999/xlink">
<path d="M113.14 8.11453C115.183 8.11453 116.838 6.45893 116.838 4.41664C116.838 2.37435 115.183 0.71875 113.14 0.71875C111.098 0.71875 109.442 2.37435 109.442 4.41664C109.442 6.45893 111.098 8.11453 113.14 8.11453Z" stroke="#F5C845" stroke-width="0.6041" stroke-miterlimit="10"/>
<path opacity="0.41" d="M107.127 82.7319C128.502 82.7319 145.829 65.404 145.829 44.029C145.829 22.654 128.502 5.32617 107.127 5.32617C85.7517 5.32617 68.4238 22.654 68.4238 44.029C68.4238 65.404 85.7517 82.7319 107.127 82.7319Z" fill="#EDEDED"/>
<path d="M107.127 77.8355C125.798 77.8355 140.934 62.6994 140.934 44.0281C140.934 25.3568 125.798 10.2207 107.127 10.2207C88.4554 10.2207 73.3193 25.3568 73.3193 44.0281C73.3193 62.6994 88.4554 77.8355 107.127 77.8355Z" fill="#EDEDED"/>
<rect x="77.1582" y="13.9727" width="62.2193" height="65.0618" fill="url(#pattern0)"/>
<path d="M135.065 44.0266C135.065 28.6033 122.563 16.1016 107.14 16.1016C91.7166 16.1016 79.2148 28.6033 79.2148 44.0266C79.2148 58.5944 90.3612 70.5435 104.587 71.8331L107.14 74.7941L109.667 71.8331C123.892 70.5698 135.065 58.6076 135.065 44.0266Z" fill="white"/>
<path d="M68.4235 54.4621C70.4803 54.4621 72.1476 52.7947 72.1476 50.7379C72.1476 48.6811 70.4803 47.0137 68.4235 47.0137C66.3666 47.0137 64.6992 48.6811 64.6992 50.7379C64.6992 52.7947 66.3666 54.4621 68.4235 54.4621Z" stroke="#F5C845" stroke-width="0.2028" stroke-miterlimit="10"/>
<path d="M145.842 40.7383C147.034 40.7383 148 39.772 148 38.5801C148 37.3881 147.034 36.4219 145.842 36.4219C144.65 36.4219 143.684 37.3881 143.684 38.5801C143.684 39.772 144.65 40.7383 145.842 40.7383Z" stroke="#F5C845" stroke-width="0.7446" stroke-miterlimit="10"/>
<path d="M134.459 17.314C135.127 17.314 135.669 16.7719 135.669 16.1033C135.669 15.4346 135.127 14.8926 134.459 14.8926C133.79 14.8926 133.248 15.4346 133.248 16.1033C133.248 16.7719 133.79 17.314 134.459 17.314Z" fill="#F5C845"/>
<path d="M85.7288 12.772C87.1388 12.772 88.2818 11.629 88.2818 10.219C88.2818 8.80903 87.1388 7.66602 85.7288 7.66602C84.3188 7.66602 83.1758 8.80903 83.1758 10.219C83.1758 11.629 84.3188 12.772 85.7288 12.772Z" fill="#F5C845"/>
<path d="M76.6618 25.7749C77.4831 25.7749 78.1489 25.1091 78.1489 24.2878C78.1489 23.4666 77.4831 22.8008 76.6618 22.8008C75.8405 22.8008 75.1748 23.4666 75.1748 24.2878C75.1748 25.1091 75.8405 25.7749 76.6618 25.7749Z" fill="#F5C845"/>
<path d="M117.036 44.6053C117.799 44.6053 118.418 43.9867 118.418 43.2236C118.418 42.4604 117.799 41.8418 117.036 41.8418C116.273 41.8418 115.654 42.4604 115.654 43.2236C115.654 43.9867 116.273 44.6053 117.036 44.6053Z" fill="#EDB7B7"/>
<path d="M95.8886 44.6053C96.6518 44.6053 97.2704 43.9867 97.2704 43.2236C97.2704 42.4604 96.6518 41.8418 95.8886 41.8418C95.1255 41.8418 94.5068 42.4604 94.5068 43.2236C94.5068 43.9867 95.1255 44.6053 95.8886 44.6053Z" fill="#EDB7B7"/>
<path d="M106.442 61.6322H106.639C112.285 61.6322 116.917 57.0131 116.917 51.3544V42.7348C116.917 37.0893 112.298 32.457 106.639 32.457H106.442C100.796 32.457 96.1641 37.0761 96.1641 42.7348V51.3544C96.1641 57.0131 100.796 61.6322 106.442 61.6322Z" fill="#E8D1B5"/>
<path d="M106.639 58.3832H106.442C100.796 58.3832 96.1641 53.7642 96.1641 48.1055V51.3559C96.1641 57.0015 100.783 61.6337 106.442 61.6337H106.639C112.285 61.6337 116.917 57.0146 116.917 51.3559V48.1055C116.917 53.7642 112.285 58.3832 106.639 58.3832Z" fill="#E0CBB4"/>
<path d="M103.731 43.8011H103.744C104.297 43.8011 104.758 43.3406 104.758 42.7878V41.5113C104.758 40.9586 104.297 40.498 103.744 40.498H103.731C103.178 40.498 102.718 40.9586 102.718 41.5113V42.7878C102.718 43.3406 103.165 43.8011 103.731 43.8011Z" fill="black"/>
<path opacity="0.38" d="M103.928 42.4056C104.178 42.4056 104.376 42.2082 104.376 41.9714V41.4186C104.376 41.1818 104.178 40.9844 103.942 40.9844H103.928C103.692 40.9844 103.494 41.1818 103.494 41.4186V41.9714C103.494 42.2082 103.692 42.4056 103.928 42.4056Z" fill="white"/>
<path d="M111.68 49.3691C112.035 49.3691 112.311 49.6981 112.245 50.0403C111.851 51.9353 110.179 53.3697 108.166 53.3697C106.152 53.3697 104.481 51.9353 104.086 50.0403C104.007 49.685 104.297 49.3691 104.652 49.3691H111.68Z" fill="#A4212B"/>
<path opacity="0.15" d="M105.877 39.8656C105.877 39.5366 105.614 39.2734 105.285 39.2734H103.179C102.85 39.2734 102.587 39.5366 102.587 39.8656C102.587 40.1946 102.85 40.4578 103.179 40.4578H105.285C105.614 40.4578 105.877 40.1946 105.877 39.8656Z" fill="black"/>
<path d="M105.877 39.2094C105.877 38.8804 105.614 38.6172 105.285 38.6172H103.179C102.85 38.6172 102.587 38.8804 102.587 39.2094C102.587 39.5384 102.85 39.8016 103.179 39.8016H105.285C105.614 39.8016 105.877 39.5252 105.877 39.2094Z" fill="#341504"/>
<path d="M108.522 47.749C109.263 47.749 109.864 47.1481 109.864 46.4067C109.864 45.6654 109.263 45.0645 108.522 45.0645C107.781 45.0645 107.18 45.6654 107.18 46.4067C107.18 47.1481 107.781 47.749 108.522 47.749Z" fill="#ECBDAB"/>
<path d="M107.587 46.7468C108.153 47.2337 108.995 47.1679 109.482 46.602C109.627 46.4441 109.706 46.2467 109.759 46.0625C109.864 46.4836 109.785 46.931 109.482 47.2864C108.995 47.8522 108.153 47.918 107.587 47.4311C107.192 47.089 107.048 46.5626 107.166 46.0757C107.232 46.3389 107.377 46.5626 107.587 46.7468Z" fill="#EFA4B7"/>
<path d="M105.232 49.3691H111.049C111.338 49.3691 111.575 49.6455 111.509 49.935V49.9482C111.456 50.2114 111.22 50.4088 110.956 50.4088H105.324C105.061 50.4088 104.824 50.2114 104.771 49.9482V49.935C104.706 49.6455 104.929 49.3691 105.232 49.3691Z" fill="white"/>
<path d="M98.9675 42.0748C98.9675 42.917 98.2832 43.6013 97.441 43.6013C96.8751 43.6013 96.3882 43.2855 96.125 42.8249V42.7328C96.125 39.9956 97.2173 37.5084 98.9675 35.666V42.0748Z" fill="#241503"/>
<path d="M114.088 41.9322C114.088 42.7745 114.772 43.4588 115.614 43.4588C116.18 43.4588 116.667 43.1429 116.93 42.6823V42.5902C116.93 39.853 115.838 37.3658 114.088 35.5234V41.9322Z" fill="#241503"/>
<path d="M100.916 38.2604H112.799C115.51 38.2604 117.734 36.0364 117.734 33.3255V28.3906H100.929C98.2181 28.3906 95.9941 30.6146 95.9941 33.3255C95.9941 36.0496 98.205 38.2604 100.916 38.2604Z" fill="#341504"/>
<path d="M100.954 36.4056H112.838C115.549 36.4056 117.773 34.1816 117.773 31.4707V33.3394C117.773 36.0503 115.549 38.2743 112.838 38.2743H100.954C98.2435 38.2743 96.0195 36.0503 96.0195 33.3394C96.0195 33.0236 96.059 32.7077 96.1116 32.405C96.5591 34.6817 98.5594 36.4056 100.954 36.4056Z" fill="#241503"/>
<path d="M112.167 43.8011H112.18C112.732 43.8011 113.193 43.3406 113.193 42.7878V41.5113C113.193 40.9586 112.732 40.498 112.18 40.498H112.167C111.614 40.498 111.153 40.9586 111.153 41.5113V42.7878C111.153 43.3406 111.601 43.8011 112.167 43.8011Z" fill="black"/>
<path opacity="0.38" d="M112.443 42.4056C112.693 42.4056 112.89 42.2082 112.89 41.9714V41.4186C112.89 41.1818 112.693 40.9844 112.456 40.9844H112.443C112.206 40.9844 112.009 41.1818 112.009 41.4186V41.9714C112.009 42.2082 112.206 42.4056 112.443 42.4056Z" fill="white"/>
<path opacity="0.15" d="M114.536 39.8656C114.536 39.5366 114.273 39.2734 113.944 39.2734H111.838C111.509 39.2734 111.246 39.5366 111.246 39.8656C111.246 40.1946 111.509 40.4578 111.838 40.4578H113.944C114.273 40.4578 114.536 40.1946 114.536 39.8656Z" fill="black"/>
<path d="M114.536 39.2094C114.536 38.8804 114.273 38.6172 113.944 38.6172H111.838C111.509 38.6172 111.246 38.8804 111.246 39.2094C111.246 39.5384 111.509 39.8016 111.838 39.8016H113.944C114.273 39.8016 114.536 39.5252 114.536 39.2094Z" fill="#341504"/>
<path opacity="0.3" d="M113.127 63.3553L100.033 63.4079C94.4006 63.4342 89.7815 58.8415 89.7552 53.2091L89.6631 31.3113L123.234 31.1797L123.326 53.0775C123.352 58.6967 118.759 63.329 113.127 63.3553Z" fill="#F7DAB0"/>
<path d="M118.536 31.3128L94.0194 31.418C93.2429 31.418 92.5981 30.7864 92.5981 30.0099L92.585 25.9699C92.585 25.1935 93.2166 24.5486 93.9931 24.5486L118.51 24.4434C119.286 24.4434 119.931 25.075 119.931 25.8515L119.944 29.8915C119.944 30.6679 119.312 31.3128 118.536 31.3128Z" fill="#E3BB6B"/>
<path d="M92.585 28.0618V29.5752C92.585 30.3516 93.2298 30.9833 94.0062 30.9833L118.523 30.878C119.299 30.878 119.931 30.2332 119.931 29.4567V27.9434L92.585 28.0618Z" fill="#A76E45"/>
<path d="M121.51 33.0109L91.3743 33.1293C90.4268 33.1293 89.6504 32.366 89.6504 31.4185C89.6504 30.471 90.4136 29.6946 91.3611 29.6946L121.497 29.5762C122.444 29.5762 123.221 30.3394 123.221 31.2869C123.221 32.2344 122.444 33.0109 121.51 33.0109Z" fill="#E3BB6B"/>
<g clip-path="url(#clip0)">
<path d="M140.36 163.669H71.05C68.82 163.669 67 161.849 67 159.619V112.409C67 110.179 68.82 108.359 71.05 108.359H140.36C142.59 108.359 144.41 110.179 144.41 112.409V159.619C144.41 161.849 142.59 163.669 140.36 163.669Z" fill="#00A99E"/>
<path opacity="0.4" d="M136.13 158.469H75.2799C73.4099 158.469 71.8799 156.939 71.8799 155.069V117.179C71.8799 115.309 73.4099 113.779 75.2799 113.779H136.13C138 113.779 139.53 115.309 139.53 117.179V155.069C139.53 156.939 138 158.469 136.13 158.469Z" fill="white"/>
<path d="M125.37 102.34H84.93C82.47 102.34 80.46 100.33 80.46 97.87V96.47C80.46 94.01 82.47 92 84.93 92H125.37C127.83 92 129.84 94.01 129.84 96.47V97.87C129.84 100.33 127.83 102.34 125.37 102.34Z" fill="#00A99E"/>
<path opacity="0.43" d="M80.4697 97.4395V97.8695C80.4697 100.329 82.4797 102.339 84.9397 102.339H125.38C127.84 102.339 129.85 100.329 129.85 97.8695V97.4395H80.4697Z" fill="#2A6C9D"/>
<path d="M129.5 132.22H81.9096C78.9696 132.22 76.5596 129.81 76.5596 126.87C76.5596 123.93 78.9696 121.52 81.9096 121.52H129.5C132.44 121.52 134.85 123.93 134.85 126.87C134.85 129.81 132.44 132.22 129.5 132.22Z" stroke="#00A99E" stroke-width="1.9316" stroke-miterlimit="10" stroke-linecap="round" stroke-linejoin="round"/>
<path d="M129.5 149.819H81.9096C78.9696 149.819 76.5596 147.409 76.5596 144.469C76.5596 141.529 78.9696 139.119 81.9096 139.119H129.5C132.44 139.119 134.85 141.529 134.85 144.469C134.85 147.409 132.44 149.819 129.5 149.819Z" stroke="#00A99E" stroke-width="1.9316" stroke-miterlimit="10" stroke-linecap="round" stroke-linejoin="round"/>
<path d="M140.36 223.82H71.05C68.82 223.82 67 222 67 219.77V172.56C67 170.33 68.82 168.51 71.05 168.51H140.36C142.59 168.51 144.41 170.33 144.41 172.56V219.77C144.41 222 142.59 223.82 140.36 223.82Z" fill="#00A99E"/>
<path opacity="0.4" d="M136.13 218.629H75.2799C73.4099 218.629 71.8799 217.099 71.8799 215.229V177.339C71.8799 175.469 73.4099 173.939 75.2799 173.939H136.13C138 173.939 139.53 175.469 139.53 177.339V215.229C139.53 217.099 138 218.629 136.13 218.629Z" fill="white"/>
<path d="M129.5 192.37H81.9096C78.9696 192.37 76.5596 189.96 76.5596 187.02C76.5596 184.08 78.9696 181.67 81.9096 181.67H129.5C132.44 181.67 134.85 184.08 134.85 187.02C134.85 189.97 132.44 192.37 129.5 192.37Z" stroke="#00A99E" stroke-width="1.9316" stroke-miterlimit="10" stroke-linecap="round" stroke-linejoin="round"/>
<path d="M129.5 209.97H81.9096C78.9696 209.97 76.5596 207.56 76.5596 204.62C76.5596 201.68 78.9696 199.27 81.9096 199.27H129.5C132.44 199.27 134.85 201.68 134.85 204.62C134.85 207.57 132.44 209.97 129.5 209.97Z" stroke="#00A99E" stroke-width="1.9316" stroke-miterlimit="10" stroke-linecap="round" stroke-linejoin="round"/>
</g>
<g clip-path="url(#clip1)">
<path d="M42 224H166" stroke="#00A79E" stroke-width="1.1641" stroke-miterlimit="10" stroke-linecap="round" stroke-linejoin="round"/>
<path d="M46.4004 234.08H148.81" stroke="#00A79E" stroke-width="1.1641" stroke-miterlimit="10" stroke-linecap="round" stroke-linejoin="round"/>
<path d="M155 234H164" stroke="#00A79E" stroke-width="1.1641" stroke-miterlimit="10" stroke-linecap="round" stroke-linejoin="round"/>
<path d="M154.07 223.871V221.291" stroke="#00A79E" stroke-width="1.1641" stroke-miterlimit="10" stroke-linecap="round" stroke-linejoin="round"/>
<path d="M145.73 233.18V230.6" stroke="#00A79E" stroke-width="1.1641" stroke-miterlimit="10" stroke-linecap="round" stroke-linejoin="round"/>
<path d="M135.46 233.18V230.6" stroke="#00A79E" stroke-width="1.1641" stroke-miterlimit="10" stroke-linecap="round" stroke-linejoin="round"/>
<path d="M51.0605 234.081V227.791" stroke="#00A79E" stroke-width="1.1641" stroke-miterlimit="10" stroke-linecap="round" stroke-linejoin="round"/>
<path d="M57.9297 234.081V231.441" stroke="#00A79E" stroke-width="1.1641" stroke-miterlimit="10" stroke-linecap="round" stroke-linejoin="round"/>
</g>
<defs>
<pattern id="pattern0" patternContentUnits="objectBoundingBox" width="1" height="1">
<use xlink:href="#image0"/>
</pattern>
<clipPath id="clip0">
<rect width="77.41" height="131.82" fill="white" transform="translate(67 92)"/>
</clipPath>
<clipPath id="clip1">
<rect width="194.95" height="44.67" fill="white" transform="translate(0 190)"/>
</clipPath>
<image id="image0" xlink:href="data:image/png;base64,iVBORw0KGgoAAAANSUhEUgAAAMgAAADVCAYAAAASEL/bAAAACXBIWXMAAC4jAAAuIwF4pT92AAAA"/>
</defs>
</svg>

<svg width="157" height="235" viewBox="0 0 157 235" fill="none" xmlns="http://www.w3.org/2000/svg" xmlns:xlink="http://www.w3.org/1999/xlink"><path d="M113.14 8.115a3.698 3.698 0 100-7.396 3.698 3.698 0 000 7.396z" stroke="#F5C845" stroke-width=".604" stroke-miterlimit="10"/><path opacity=".41" d="M107.127 82.732c21.375 0 38.702-17.328 38.702-38.703 0-21.375-17.327-38.703-38.702-38.703-21.375 0-38.703 17.328-38.703 38.703 0 21.375 17.328 38.703 38.703 38.703z" fill="#EDEDED"/><path d="M107.127 77.835c18.671 0 33.807-15.136 33.807-33.807 0-18.671-15.136-33.807-33.807-33.807-18.672 0-33.808 15.136-33.808 33.807 0 18.671 15.136 33.807 33.808 33.807z" fill="#EDEDED"/><path fill="url(#pattern0)" d="M77.158 13.973h62.219v65.062H77.158z"/><path d="M135.065 44.027c0-15.424-12.502-27.925-27.925-27.925S79.215 28.603 79.215 44.027c0 14.567 11.146 26.516 25.372 27.806l2.553 2.961 2.527-2.96c14.225-1.264 25.398-13.226 25.398-27.807z" fill="#fff"/><path d="M68.424 54.462a3.724 3.724 0 100-7.448 3.724 3.724 0 000 7.448z" stroke="#F5C845" stroke-width=".203" stroke-miterlimit="10"/><path d="M145.842 40.738a2.158 2.158 0 100-4.316 2.158 2.158 0 000 4.316z" stroke="#F5C845" stroke-width=".745" stroke-miterlimit="10"/><path d="M134.459 17.314a1.21 1.21 0 10-.001-2.421 1.21 1.21 0 00.001 2.421zm-48.73-4.542a2.553 2.553 0 100-5.106 2.553 2.553 0 000 5.106zm-9.067 13.003a1.487 1.487 0 100-2.974 1.487 1.487 0 000 2.974z" fill="#F5C845"/><path d="M117.036 44.605a1.382 1.382 0 100-2.764 1.382 1.382 0 000 2.764zm-21.147 0a1.382 1.382 0 100-2.763 1.382 1.382 0 000 2.763z" fill="#EDB7B7"/><path d="M106.442 61.632h.197c5.646 0 10.278-4.619 10.278-10.278v-8.62c0-5.645-4.619-10.277-10.278-10.277h-.197c-5.646 0-10.278 4.62-10.278 10.278v8.62c0 5.658 4.632 10.277 10.278 10.277z" fill="#E8D1B5"/><path d="M106.639 58.383h-.197c-5.646 0-10.278-4.619-10.278-10.278v3.25c0 5.647 4.619 10.279 10.278 10.279h.197c5.646 0 10.278-4.62 10.278-10.278v-3.25c0 5.658-4.632 10.277-10.278 10.277z" fill="#E0CBB4"/><path d="M103.731 43.801h.013c.553 0 1.014-.46 1.014-1.013V41.51c0-.552-.461-1.013-1.014-1.013h-.013c-.553 0-1.013.46-1.013 1.013v1.277c0 .553.447 1.013 1.013 1.013z" fill="#000"/><path opacity=".38" d="M103.928 42.406c.25 0 .448-.198.448-.435v-.552a.438.438 0 00-.434-.435h-.014a.438.438 0 00-.434.435v.552c0 .237.198.435.434.435z" fill="#fff"/><path d="M111.68 49.37c.355 0 .631.328.565.67-.394 1.895-2.066 3.33-4.079 3.33-2.014 0-3.685-1.435-4.08-3.33-.079-.355.211-.67.566-.67h7.028z" fill="#A4212B"/><path opacity=".15" d="M105.877 39.866a.59.59 0 00-.592-.593h-2.106a.59.59 0 00-.592.593.59.59 0 00.592.592h2.106a.59.59 0 00.592-.592z" fill="#000"/><path d="M105.877 39.21a.59.59 0 00-.592-.593h-2.106a.59.59 0 00-.592.592.59.59 0 00.592.593h2.106a.598.598 0 00.592-.593z" fill="#341504"/><path d="M108.522 47.749a1.342 1.342 0 100-2.684 1.342 1.342 0 000 2.684z" fill="#ECBDAB"/><path d="M107.587 46.747a1.338 1.338 0 001.895-.145 1.32 1.32 0 00.277-.54 1.35 1.35 0 01-.277 1.224 1.338 1.338 0 01-1.895.145 1.36 1.36 0 01-.421-1.355 1.3 1.3 0 00.421.67z" fill="#EFA4B7"/><path d="M105.232 49.37h5.817c.289 0 .526.276.46.565v.013a.575.575 0 01-.553.46h-5.632a.576.576 0 01-.553-.46v-.013a.467.467 0 01.461-.566z" fill="#fff"/><path d="M98.968 42.075c0 .842-.685 1.526-1.527 1.526a1.517 1.517 0 01-1.316-.776v-.092c0-2.737 1.092-5.225 2.843-7.067v6.409zm15.12-.143c0 .843.684 1.527 1.526 1.527.566 0 1.053-.316 1.316-.777v-.092c0-2.737-1.092-5.224-2.842-7.067v6.41z" fill="#241503"/><path d="M100.916 38.26h11.883c2.711 0 4.935-2.224 4.935-4.934V28.39h-16.805c-2.71 0-4.935 2.224-4.935 4.934 0 2.725 2.211 4.935 4.922 4.935z" fill="#341504"/><path d="M100.954 36.406h11.884c2.711 0 4.935-2.224 4.935-4.935v1.868c0 2.711-2.224 4.935-4.935 4.935h-11.884c-2.71 0-4.934-2.224-4.934-4.935 0-.315.039-.631.092-.934.447 2.277 2.447 4 4.842 4z" fill="#241503"/><path d="M112.167 43.801h.013c.552 0 1.013-.46 1.013-1.013V41.51c0-.552-.461-1.013-1.013-1.013h-.013c-.553 0-1.014.46-1.014 1.013v1.277c0 .553.448 1.013 1.014 1.013z" fill="#000"/><path opacity=".38" d="M112.443 42.406a.44.44 0 00.447-.435v-.552a.438.438 0 00-.434-.435h-.013a.438.438 0 00-.434.435v.552c0 .237.197.435.434.435z" fill="#fff"/><path opacity=".15" d="M114.536 39.866a.59.59 0 00-.592-.593h-2.106a.59.59 0 00-.592.593.59.59 0 00.592.592h2.106a.59.59 0 00.592-.592z" fill="#000"/><path d="M114.536 39.21a.59.59 0 00-.592-.593h-2.106a.59.59 0 00-.592.592.59.59 0 00.592.593h2.106a.598.598 0 00.592-.593z" fill="#341504"/><path opacity=".3" d="M113.127 63.355l-13.094.053c-5.632.026-10.252-4.566-10.278-10.199l-.092-21.898 33.571-.131.092 21.898c.026 5.619-4.567 10.251-10.199 10.277z" fill="#F7DAB0"/><path d="M118.536 31.313l-24.517.105a1.42 1.42 0 01-1.42-1.408l-.014-4.04c0-.776.632-1.421 1.408-1.421l24.517-.106c.776 0 1.421.632 1.421 1.409l.013 4.04a1.42 1.42 0 01-1.408 1.42z" fill="#E3BB6B"/><path d="M92.585 28.062v1.513a1.42 1.42 0 001.421 1.408l24.517-.105c.776 0 1.408-.645 1.408-1.421v-1.514l-27.346.119z" fill="#A76E45"/><path d="M121.51 33.01l-30.136.12a1.719 1.719 0 01-1.724-1.712c0-.947.764-1.723 1.711-1.723l30.136-.119c.947 0 1.724.763 1.724 1.71 0 .948-.777 1.725-1.711 1.725z" fill="#E3BB6B"/><g clip-path="url(#clip0)"><path d="M140.36 163.669H71.05c-2.23 0-4.05-1.82-4.05-4.05v-47.21c0-2.23 1.82-4.05 4.05-4.05h69.31c2.23 0 4.05 1.82 4.05 4.05v47.21c0 2.23-1.82 4.05-4.05 4.05z" fill="#00A99E"/><path opacity=".4" d="M136.13 158.469H75.28a3.41 3.41 0 01-3.4-3.4v-37.89c0-1.87 1.53-3.4 3.4-3.4h60.85c1.87 0 3.4 1.53 3.4 3.4v37.89c0 1.87-1.53 3.4-3.4 3.4z" fill="#fff"/><path d="M125.37 102.34H84.93c-2.46 0-4.47-2.01-4.47-4.47v-1.4c0-2.46 2.01-4.47 4.47-4.47h40.44c2.46 0 4.47 2.01 4.47 4.47v1.4c0 2.46-2.01 4.47-4.47 4.47z" fill="#00A99E"/><path opacity=".43" d="M80.47 97.44v.43a4.481 4.481 0 004.47 4.469h40.44c2.46 0 4.47-2.01 4.47-4.47v-.43H80.47z" fill="#2A6C9D"/><path d="M129.5 132.22H81.91c-2.94 0-5.35-2.41-5.35-5.35 0-2.94 2.41-5.35 5.35-5.35h47.59c2.94 0 5.35 2.41 5.35 5.35 0 2.94-2.41 5.35-5.35 5.35zm0 17.599H81.91c-2.94 0-5.35-2.41-5.35-5.35 0-2.94 2.41-5.35 5.35-5.35h47.59c2.94 0 5.35 2.41 5.35 5.35 0 2.94-2.41 5.35-5.35 5.35z" stroke="#00A99E" stroke-width="1.932" stroke-miterlimit="10" stroke-linecap="round" stroke-linejoin="round"/><path d="M140.36 223.82H71.05c-2.23 0-4.05-1.82-4.05-4.05v-47.21c0-2.23 1.82-4.05 4.05-4.05h69.31c2.23 0 4.05 1.82 4.05 4.05v47.21c0 2.23-1.82 4.05-4.05 4.05z" fill="#00A99E"/><path opacity=".4" d="M136.13 218.629H75.28a3.41 3.41 0 01-3.4-3.4v-37.89c0-1.87 1.53-3.4 3.4-3.4h60.85c1.87 0 3.4 1.53 3.4 3.4v37.89c0 1.87-1.53 3.4-3.4 3.4z" fill="#fff"/><path d="M129.5 192.37H81.91c-2.94 0-5.35-2.41-5.35-5.35 0-2.94 2.41-5.35 5.35-5.35h47.59c2.94 0 5.35 2.41 5.35 5.35 0 2.95-2.41 5.35-5.35 5.35zm0 17.6H81.91c-2.94 0-5.35-2.41-5.35-5.35 0-2.94 2.41-5.35 5.35-5.35h47.59c2.94 0 5.35 2.41 5.35 5.35 0 2.95-2.41 5.35-5.35 5.35z" stroke="#00A99E" stroke-width="1.932" stroke-miterlimit="10" stroke-linecap="round" stroke-linejoin="round"/></g><g clip-path="url(#clip1)" stroke="#00A79E" stroke-width="1.164" stroke-miterlimit="10" stroke-linecap="round" stroke-linejoin="round"><path d="M42 224h124M46.4 234.08h102.41M155 234h9m-9.93-10.129v-2.58m-8.34 11.889v-2.58m-10.27 2.58v-2.58m-84.4 3.481v-6.29m6.87 6.29v-2.64"/></g><defs><clipPath id="clip0"><path fill="#fff" transform="translate(67 92)" d="M0 0h77.41v131.82H0z"/></clipPath><clipPath id="clip1"><path fill="#fff" transform="translate(0 190)" d="M0 0h194.95v44.67H0z"/></clipPath><pattern id="pattern0" patternContentUnits="objectBoundingBox" width="1" height="1"><use xlink:href="#image0"/></pattern><image id="image0" xlink:href="data:image/png;base64,iVBORw0KGgoAAAANSUhEUgAAAMgAAADVCAYAAAASEL/bAAAACXBIWXMAAC4jAAAuIwF4pT92AAAA"/></defs></svg>
